svgs/duotone/vest.svg

<svg xmlns="http://www.w3.org/2000/svg" viewBox="0 0 448 512"><!-- Font Awesome Pro 6.0.0-alpha2 by @fontawesome - https://fontawesome.com License - https://fontawesome.com/license (Commercial License) --><defs><style>.fa-secondary{opacity:.4}</style></defs><path d="M306.688 4.031L281.688 20.688C246.656 44.063 201.406 44.063 166.312 20.688L141.312 4.031C137.375 1.406 132.75 0 128 0L150.186 66.559C173.205 79.428 198.537 86.25 224 86.25S274.795 79.426 297.814 66.559L320 0C315.25 0 310.625 1.406 306.688 4.031ZM108.688 348.688L60.688 396.688C54.438 402.938 54.438 413.063 60.688 419.312C63.812 422.438 67.906 424 72 424S80.188 422.438 83.312 419.312L131.312 371.312C137.562 365.062 137.562 354.937 131.312 348.688S114.938 342.438 108.688 348.688ZM387.312 396.688L339.312 348.688C333.062 342.438 322.937 342.438 316.688 348.688S310.438 365.063 316.688 371.312L364.688 419.312C367.812 422.438 371.906 424 376 424S384.188 422.438 387.312 419.312C393.562 413.062 393.562 402.938 387.312 396.688Z" class="fa-secondary"/><path d="M437.252 239.877L384 160V32C384 14.326 369.674 0 352 0H320L224 288V512H416C433.674 512 448 497.672 448 480V275.377C448 262.742 444.26 250.389 437.252 239.877ZM387.312 419.312C384.188 422.438 380.094 424 376 424S367.812 422.438 364.688 419.312L316.688 371.312C310.438 365.062 310.438 354.937 316.688 348.688S333.063 342.438 339.312 348.688L387.312 396.688C393.562 402.938 393.562 413.062 387.312 419.312ZM96 0C78.326 0 64 14.326 64 32V160L10.748 239.877C3.74 250.389 0 262.742 0 275.377V480C0 497.672 14.326 512 32 512H192V282.807L193.643 277.881L207.135 237.404L128 0H96ZM131.312 371.312L83.312 419.312C80.188 422.438 76.094 424 72 424S63.812 422.438 60.688 419.312C54.438 413.062 54.438 402.937 60.688 396.688L108.688 348.688C114.938 342.438 125.063 342.438 131.312 348.688S137.562 365.062 131.312 371.312Z" class="fa-primary"/></svg>

<svg xmlns="http://www.w3.org/2000/svg" viewBox="0 0 448 512"><!--! Font Awesome Pro 6.3.0 by @fontawesome - https://fontawesome.com License - https://fontawesome.com/license (Commercial License) Copyright 2023 Fonticons, Inc. --><defs><style>.fa-secondary{opacity:.4}</style></defs><path class="fa-primary" d="M437.3 239.9L384 160V32c0-17.67-14.33-32-32-32h-32l-96 288v224h192c17.67 0 32-14.33 32-32V275.4C448 262.7 444.3 250.4 437.3 239.9zM387.3 419.3C384.2 422.4 380.1 424 376 424s-8.188-1.562-11.31-4.688l-48-48c-6.25-6.25-6.25-16.38 0-22.62s16.38-6.25 22.62 0l48 48C393.6 402.9 393.6 413.1 387.3 419.3zM96 0C78.33 0 64 14.33 64 32v128L10.75 239.9C3.74 250.4 0 262.7 0 275.4V480c0 17.67 14.33 32 32 32h160V282.8l15.13-45.4L128 0H96zM131.3 371.3l-48 48C80.19 422.4 76.09 424 72 424s-8.188-1.562-11.31-4.688c-6.25-6.25-6.25-16.38 0-22.62l48-48c6.25-6.25 16.38-6.25 22.62 0S137.6 365.1 131.3 371.3z"/><path class="fa-secondary" d="M306.7 4.031l-25 16.66c-35.03 23.38-80.28 23.38-115.4 0l-25-16.66C137.4 1.406 132.8 0 128 0l22.19 66.56C173.2 79.43 198.5 86.25 224 86.25s50.79-6.824 73.81-19.69L320 0C315.3 0 310.6 1.406 306.7 4.031zM108.7 348.7l-48 48c-6.25 6.25-6.25 16.38 0 22.62C63.81 422.4 67.91 424 72 424s8.188-1.562 11.31-4.688l48-48c6.25-6.25 6.25-16.38 0-22.62S114.9 342.4 108.7 348.7zM387.3 396.7l-48-48c-6.25-6.25-16.38-6.25-22.62 0s-6.25 16.38 0 22.62l48 48C367.8 422.4 371.9 424 376 424s8.188-1.562 11.31-4.688C393.6 413.1 393.6 402.9 387.3 396.7z"/></svg>
